X:18
T:Saltarello
R:misc
H:14th century Italian
D:Dead Can Dance
Z:id:hn-misc-18
M:2/4
L:1/8
K:Edor
GA |: BE BE | BE B2 | AF/G/ A/G/F/G/ | EB E2 |
EF G/F/G/E/ | DA D2 | E2 A>F |1 G2 F/E/D/E/ | F2 B2 | F2 G/F/G/A/ :|
[2 G2 F/E/D/F/ | E2 B2 | E2 ||
FG | AE AE | AE A/G/F/G/ | EB E2 | A/G/F/G/ F/E/F/G/ |
AE AE | AE A/G/F/G/ | EB E2 | D/E/F/G/ E/F/G/A/ ||
|: BE BE | BE B2 | AF/G/ A/G/F/G/ | EB E2 |
EF G/F/G/E/ | DA D2 | E2 A>F |1 G2 F/E/D/E/ | F2 B2 | F2 GA :|
[2 G2 F/E/D/F/ | E2 B2 | E2 ||
cd |: e4- | e4- | e4- | e3 d | c/d/e/d/ c/d/e/d/ |
c/d/e/c/ d/e/d/c/ |1 d/c/B/c/ dB :|2 d/c/B/c/ dA ||

